svg/color/abnbon.svg

<svg width="40" height="40" viewBox="0 0 40 40" fill="none" xmlns="http://www.w3.org/2000/svg">
<g clip-path="url(#clip0_819_3667)">
<path d="M20 0C31.0457 0 40 8.9543 40 20C40 31.0457 31.0457 40 20 40C8.95431 40 7.90517e-06 31.0457 0 20C6.58765e-07 8.95431 8.95431 1.97595e-06 20 0Z" fill="#FFDEDF"/>
<path d="M26 6C30.4183 6 34 9.58172 34 14V26C34 30.4183 30.4183 34 26 34H14C9.58172 34 6 30.4183 6 26V14C6 9.58172 9.58172 6 14 6H26Z" fill="#FF5A5F"/>
<g clip-path="url(#clip1_819_3667)">
<path d="M20.0008 25.2292C18.8733 23.815 18.2108 22.5758 17.9899 21.515C17.7708 20.6592 17.8566 19.975 18.2324 19.4608C18.6299 18.8692 19.2224 18.5808 19.9999 18.5808C20.7774 18.5808 21.3691 18.8683 21.7666 19.4667C22.1383 19.975 22.2316 20.66 22.0049 21.5208C21.7624 22.6025 21.1008 23.8417 19.9949 25.2358L20.0008 25.2292ZM28.0016 26.1792C27.8474 27.2175 27.1399 28.0792 26.1683 28.4983C24.2908 29.315 22.4324 28.0125 20.8416 26.245C23.4724 22.9525 23.9583 20.3883 22.8291 18.73C22.1666 17.78 21.2183 17.3175 20.0008 17.3175C17.5474 17.3175 16.1983 19.3925 16.7283 21.8025C17.0366 23.1067 17.8549 24.5883 19.1591 26.2458C18.3424 27.15 17.5674 27.7925 16.8824 28.19C16.3524 28.4767 15.8449 28.655 15.3591 28.6975C13.1266 29.03 11.3774 26.8642 12.1716 24.6308C12.2816 24.3433 12.5008 23.8142 12.8758 22.9967L12.8966 22.9525C14.1166 20.3042 15.5983 17.2942 17.3008 13.9567L17.3449 13.8467L17.8283 12.9167C18.2033 12.2317 18.3574 11.925 18.9541 11.5475C19.2424 11.3725 19.5958 11.285 19.9924 11.285C20.7874 11.285 21.4074 11.75 21.6724 12.1242C21.8041 12.3233 21.9599 12.5883 22.1574 12.9183L22.6224 13.8258L22.6891 13.9583C24.3899 17.295 25.8733 20.2983 27.0883 22.9533L27.1099 22.9742L27.5541 23.9908L27.8191 24.6275C28.0216 25.1383 28.0641 25.6458 27.9966 26.1758L28.0016 26.1792ZM29.0183 24.1875C28.8633 23.7017 28.5974 23.1283 28.2683 22.4425V22.4175C26.6941 19.0792 25.2333 16.0775 23.8458 13.3808L23.7533 13.245C22.7641 11.2175 22.0566 10 20.0008 10C17.9674 10 17.1041 11.4125 16.2216 13.2483L16.1541 13.3817C14.7633 16.0783 13.3033 19.0842 11.7349 22.4208V22.465L11.2691 23.4817C11.0941 23.9017 11.0049 24.1217 10.9816 24.1875C9.85659 27.2833 12.1758 30 14.9833 30C15.0058 30 15.0933 30 15.2041 29.9775H15.5141C16.9724 29.8 18.4758 28.8733 20.0008 27.2133C21.5249 28.8708 23.0299 29.8 24.4858 29.9775H24.7958C24.9066 30 24.9949 30 25.0166 30C27.8249 30.0025 30.1433 27.2825 29.0183 24.1875Z" fill="white"/>
</g>
</g>
<defs>
<clipPath id="clip0_819_3667">
<rect width="40" height="40" fill="white"/>
</clipPath>
<clipPath id="clip1_819_3667">
<rect width="20" height="20" fill="white" transform="translate(10 10)"/>
</clipPath>
</defs>
</svg>

<svg xmlns="http://www.w3.org/2000/svg" width="40" height="40" fill="none" viewBox="0 0 40 40"><g clip-path="url(#abnbon_svg-a)"><path fill="#FFDEDF" d="M20 0c11.046 0 20 8.954 20 20s-8.954 20-20 20S0 31.046 0 20 8.954 0 20 0"/><path fill="#FF5A5F" d="M26 6a8 8 0 0 1 8 8v12a8 8 0 0 1-8 8H14a8 8 0 0 1-8-8V14a8 8 0 0 1 8-8z"/><g clip-path="url(#abnbon_svg-b)"><path fill="#fff" d="M20 25.23c-1.127-1.415-1.79-2.654-2.01-3.715-.22-.856-.133-1.54.242-2.054.398-.592.99-.88 1.768-.88.777 0 1.37.287 1.767.886.371.508.465 1.193.238 2.054-.243 1.081-.904 2.32-2.01 3.715zm8.002.95c-.155 1.038-.862 1.9-1.834 2.318-1.877.817-3.736-.486-5.326-2.253 2.63-3.293 3.116-5.857 1.987-7.515-.662-.95-1.61-1.413-2.828-1.413-2.454 0-3.803 2.075-3.273 4.485.309 1.305 1.127 2.786 2.431 4.444-.817.904-1.592 1.547-2.277 1.944-.53.287-1.037.465-1.523.508-2.232.332-3.982-1.834-3.187-4.067.11-.288.329-.817.704-1.634l.02-.044c1.22-2.649 2.702-5.659 4.405-8.996l.044-.11.483-.93c.375-.685.53-.992 1.126-1.37.288-.175.642-.262 1.038-.262.795 0 1.415.465 1.68.84.132.198.288.463.485.793l.465.908.067.132c1.7 3.337 3.184 6.34 4.4 8.995l.02.021.445 1.017.265.637c.203.51.245 1.018.178 1.548zm1.016-1.992c-.155-.486-.42-1.06-.75-1.745v-.026c-1.574-3.338-3.035-6.34-4.422-9.036l-.093-.136C22.764 11.218 22.057 10 20.001 10c-2.034 0-2.897 1.412-3.78 3.248l-.067.134c-1.39 2.696-2.85 5.702-4.42 9.039v.044l-.465 1.017c-.175.42-.264.64-.287.706C9.857 27.283 12.176 30 14.983 30c.023 0 .11 0 .221-.023h.31c1.458-.177 2.962-1.104 4.487-2.764 1.524 1.658 3.029 2.587 4.485 2.764h.31c.11.023.199.023.22.023 2.809.003 5.127-2.718 4.002-5.812"/></g></g><defs><clipPath id="abnbon_svg-a"><path fill="#fff" d="M0 0h40v40H0z"/></clipPath><clipPath id="abnbon_svg-b"><path fill="#fff" d="M10 10h20v20H10z"/></clipPath></defs></svg>
